X:1
T:When You Hear His Voice
T:When You Hear His Voice
T:S. L. Ellis
T:Laurene Highfield, 1919
T:Public Domain Courtesy of the Cyber Hymnal™
T:Public Domain Courtesy of the Cyber Hymnal™
C:S. L. Ellis
Z:Public Domain
Z:Courtesy of the Cyber Hymnal™
%%score ( 1 2 ) ( 3 4 )
L:1/8
Q:1/4=98
M:4/4
K:Ab
V:1 treble 
V:2 treble 
V:3 bass 
V:4 bass 
V:1
 [CE][CA] | [Ec]2 [Ec][Fc] [Ec]2 [Ed][Ec] | [DB]2 [DF][DF] [DF]2 [EG][EA] | %3
w: 1.~On the|moun- tain of sin you have|wan- dered a- way, Storm and|
w: 2.~Quick- ly|an- swer the Lord who is|seek- ing for you, Go to|
w: 3.~Thro’ the|dark- ness of night, He is|call- ing to you, He who|
 [FB]2 [FB][FB] [GB]2 [Fd]2 | [Ec]6 [CE][CA] | [Ec]2 [Ec][Fc] [Ec]2 [_Ge][Ge] | %6
w: tem- pest a- bout you|beat; You have|strug- gled a- lone through the|
w: meet Him with thank- ful|heart; Fol- low|Him to your home, as He|
w: knows all His sheep by|name; Tho’ your|sins have been great, and your|
 [Fe]2 [Fd][Fd] [Fd]2 [FB]2 | [EA][EA][EG][EA] [Ec]2 [DB]2 | [CA]6 ||"^Refrain" [EA][Ec] | %10
w: deep mi- ry clay, Sharp|rocks have bruised your wea- ry|feet.||
w: bids you to do. And|from its shel- ter ne’er de-|part.|You may|
w: mer- its are few, His|love will ev- er be the|same.||
 [Ae]2 [Ae][Ae] [Ae]2 [Ac]2 | e6 [Ac][GB] | [FA][FA][FA][FA] [FA]2 [Gc]A | B6 [EA][Ec] | %14
w: ||||
w: en- ter the Shep- herd’s|fold, You may|make its peace and com- fort your|choice, Safe for-|
w: ||||
 [Ae]2 [Ae][Ae] [Ae]2 [Ac]2 | e6 [Fd][FB] | [EA][EA][EG][EA] [Ac]2 [GB]2 | A6 |] %18
w: ||||
w: ev- er from storm and|cold, If you|fol- low when you hear His|voice.|
w: ||||
V:2
 x2 | x8 | x8 | x8 | x8 | x8 | x8 | x8 | x6 || x2 | x8 | (A2 G2 A2) x2 | x7 A | (G2 FF G2) x2 | %14
 x8 | (A2 G2 A2) x2 | x8 | (A2 F2 E2) |] %18
V:3
 [A,,A,][A,,A,] | [A,,A,]2 [A,,A,][A,,A,] [A,,A,]2 [B,,G,][C,A,] | %2
w: ||
 [D,F,]2 [D,A,][D,A,] [D,A,]2 [D,B,][C,C] | [B,,D]2 [B,,D][B,,D] [E,D]2 [E,G,]2 | %4
w: ||
 [A,,A,]6 [A,,A,][A,,A,] | [A,,A,]2 [A,,A,][A,,A,] [A,,A,]2 [C,A,][C,A,] | %6
w: ||
 [D,A,]2 [D,A,][D,A,] [D,A,]2 [D,D]2 | [E,C][E,C][E,B,][E,C] [E,A,]2 [E,G,]2 | [A,,A,]6 || %9
w: |||
 [A,C]A, | [A,C]2 [A,C][A,C] [A,C]2 [A,E]2 | [A,C]2 [E,B,]2 [A,C]2 [A,E][E,D] | %12
w: * His||* fold, your * *|
 [F,C][F,C][F,C][F,C] [F,C]2 [C,E][F,C] | [E,E]2 [B,,=D][B,,D] [E,E]2 [A,C]A, | %14
w: |* wise choice, from * cold,|
 [A,C]2 [A,C][A,C] [A,C]2 [A,E]2 | [A,C]2 [E,B,]2 [A,C]2 [D,D][D,D] | %16
w: |* His voice. * *|
 [E,C][E,C][E,B,][E,C] [E,E]2 [E,D]2 | C2 D2 C2 |] %18
w: ||
V:4
 x2 | x8 | x8 | x8 | x8 | x8 | x8 | x8 | x6 || x A, | x8 | x8 | x8 | x7 A, | x8 | x8 | x8 | A,,6 |] %18

